X:1
T:[ID 2-98b]
T:[ID 2-98b]
T:Bezeichnung standardisiert: Menuett Men
T:Urheber unbekannt Datum in der hier transkribierten schriftlichen Quelle: 1767
C:Urheber unbekannt
C:Datum in der hier transkribierten schriftlichen Quelle: 1767
L:1/8
M:none
K:G
V:1 treble 
V:1
 G2 G2 G2 | G2 BABG | A2 A2 A2 | A2 cBcA | B2 G2 G2 | GABcdB | A2 A2 A2 | A6 :| %8

